logos/drone.svg

<?xml version="1.0" encoding="UTF-8"?>
<svg width="512px" height="136px" viewBox="0 0 512 136" version="1.1" xmlns="http://www.w3.org/2000/svg" xmlns:xlink="http://www.w3.org/1999/xlink" preserveAspectRatio="xMidYMid">
    <g transform="translate(-0.000987, -0.000561)">
        <path d="M178.038869,39.933743 L204.679488,39.933743 C212.648087,39.3264298 220.532424,41.9031544 226.60441,47.0991507 C231.997926,53.4528639 234.622577,61.7017668 233.892304,70.0039583 C234.563499,78.0942926 231.935009,86.112291 226.60441,92.2350951 C220.623046,97.3774596 212.854381,99.952343 204.985702,99.4005028 L178.038869,99.4005028 L178.038869,39.933743 L178.038869,39.933743 Z M202.53599,86.110815 C205.093172,86.1867892 207.638038,85.727879 210.007611,84.7634734 C212.075147,83.8370511 213.654595,82.0796372 214.35585,79.9252921 C215.473896,76.7421474 215.972802,73.3745356 215.825678,70.0039583 C215.963484,66.5336708 215.465344,63.0674452 214.35585,59.7764105 C213.612669,57.5930395 212.114057,55.7469232 210.130097,54.5707724 C207.749822,53.4895551 205.147792,52.9859363 202.53599,53.1009452 L195.431825,53.1009452 L195.431825,86.110815 L202.53599,86.110815 L202.53599,86.110815 Z M250.42786,39.933743 L281.47796,39.933743 C287.345043,39.5477246 293.109852,41.6097524 297.401089,45.6293235 C301.133796,49.9414079 303.005642,55.5569456 302.606727,61.2462377 C302.661368,64.9865056 301.641069,68.6638334 299.667072,71.8412423 C297.692985,74.8758436 294.944483,77.328353 291.705508,78.9454073 C292.438001,79.4747352 293.061773,80.1400925 293.542792,80.9051769 C294.158258,81.9434879 294.690687,83.0288242 295.135105,84.1510454 L301.994299,99.7679597 L283.621458,99.7679597 L277.497178,85.4371442 C277.110583,84.507052 276.500554,83.6866683 275.721137,83.0486749 C274.82533,82.5489381 273.805511,82.3152294 272.781483,82.3750041 L267.882058,82.3750041 L267.882058,99.7679597 L250.611589,99.7679597 L250.611589,39.933743 L250.42786,39.933743 L250.42786,39.933743 Z M276.88475,68.7178595 C279.110128,68.9470488 281.330131,68.2366479 283.00903,66.7580898 C284.51189,65.2613265 285.274395,63.1756485 285.091286,61.0625093 C285.091286,55.8568712 282.702816,53.2846736 277.619664,53.2846736 L267.514602,53.2846736 L267.514602,68.9015879 L276.762265,68.9015879 L276.88475,68.7178595 L276.88475,68.7178595 Z M346.579058,100.380388 C338.349395,100.968128 330.210348,98.3574905 323.857979,93.0924943 C318.284849,86.7505542 315.522486,78.4192646 316.202629,70.0039583 C315.431875,61.4479417 318.198295,52.9494979 323.857979,46.4867227 C330.172454,41.1478606 338.334081,38.5079815 346.579058,39.1375865 C354.842283,38.5115447 363.021615,41.1500391 369.36138,46.4867227 C374.999014,52.9592809 377.742949,61.4566296 376.955487,70.0039583 C377.652342,78.4106337 374.912436,86.7408347 369.36138,93.0924943 C362.958866,98.3973081 354.747334,101.010068 346.456572,100.380388 L346.579058,100.380388 L346.579058,100.380388 Z M346.579058,85.6208726 C350.189763,85.9323317 353.740912,84.552586 356.194178,81.8850617 C358.478127,78.2313462 359.490104,73.9250611 359.072589,69.6365015 C359.462794,65.3498142 358.452841,61.0521447 356.194178,57.3879413 C350.634807,52.4061146 342.217095,52.4061146 336.657724,57.3879413 C334.450587,61.073229 333.444632,65.3538865 333.779312,69.6365015 C333.419599,73.9209967 334.427336,78.2092404 336.657724,81.8850617 C339.176202,84.5813309 342.775894,85.9987095 346.456572,85.7433582 L346.579058,85.6208726 L346.579058,85.6208726 Z M393.674772,39.933743 L408.49553,39.933743 L430.910395,71.4737855 L430.910395,39.933743 L448.303351,39.933743 L448.303351,99.4005028 L433.237621,99.4005028 L410.945242,68.0441887 L410.945242,99.4005028 L393.552286,99.4005028 L393.674772,39.933743 L393.674772,39.933743 Z M467.166133,39.933743 L511.995864,39.933743 L511.995864,53.2846736 L484.191632,53.2846736 L484.191632,63.022279 L508.688752,63.022279 L508.688752,76.4956952 L484.191632,76.4956952 L484.191632,86.2333006 L511.995864,86.2333006 L511.995864,99.5842312 L466.859919,99.5842312 L467.166133,39.933743 L467.166133,39.933743 Z" fill="#1E375A"></path>
        <path d="M27.1366073,15.1304085 L26.4629364,15.7428365 L50.0414149,39.0151009 C46.570807,44.6221837 44.7654434,51.1002529 44.8357768,57.6941553 C44.5553876,66.661425 48.0201874,75.3407623 54.398864,81.6497266 C60.7775406,87.9586908 69.4944274,91.327907 78.4580746,90.9489963 C85.1133703,91.0475633 91.6581268,89.2413805 97.3208573,85.7433582 L121.021821,109.321837 C108.254546,126.000374 88.3762142,135.689926 67.3731276,135.472513 C49.5650839,135.735464 32.3981902,128.832074 19.7299941,116.313593 C7.06179792,103.795112 -0.0451845246,86.7114991 0.00604635418,68.9015879 C-0.283584696,47.6206329 9.84730243,27.5418092 27.1366073,15.1304085 L27.1366073,15.1304085 Z M40.3038095,6.12771674 C49.3218216,2.03094452 59.1219251,-0.0586297873 69.0266832,0.00343662634 C86.7708194,-0.177159706 103.846029,6.76663845 116.428165,19.2797051 C129.010301,31.7927717 136.047985,48.8295 135.965065,66.5743614 C136.069854,76.5031543 133.978535,86.3323529 129.840785,95.358478 L108.712018,74.2297116 C112.11817,68.7069901 113.920592,62.3455009 113.917656,55.8568712 C114.285497,46.8211745 110.85286,38.0442954 104.45255,31.6556219 C98.0522396,25.2669485 89.2691282,21.85029 80.2341158,22.2345734 C73.7409686,22.1987612 67.3705976,24.0036997 61.8612755,27.4402115 L40.3038095,6.12771674 L40.3038095,6.12771674 Z M80.6015726,75.025868 C75.2454588,75.2126262 70.0491008,73.1839038 66.2363479,69.4175065 C62.4235949,65.6511091 60.3314626,60.4799552 60.4526911,55.1219576 C60.2449979,49.7116328 62.2989519,44.459047 66.1216331,40.6247467 C69.9443144,36.7904464 75.1906424,34.7205608 80.6015726,34.9118333 C85.9863353,34.7922247 91.1843464,36.8871716 94.9812942,40.7072715 C98.778242,44.5273713 100.841552,49.7380215 100.689211,55.1219576 C100.898051,60.5108427 98.8488231,65.7424531 95.0354456,69.5558306 C91.2220681,73.3692081 85.9904577,75.4184364 80.6015726,75.2095964 L80.6015726,75.025868 L80.6015726,75.025868 Z" fill="#00ABE4"></path>
    </g>
</svg>

<svg width="512" height="136" xmlns="http://www.w3.org/2000/svg" preserveAspectRatio="xMidYMid">
	<path d="M178.038 39.933h26.64a30.193 30.193 0 0 1 21.925 7.166 31.173 31.173 0 0 1 7.288 22.904 30.07 30.07 0 0 1-7.288 22.232 29.948 29.948 0 0 1-21.618 7.165h-26.947V39.933Zm24.497 46.177a18.373 18.373 0 0 0 7.472-1.347 8.023 8.023 0 0 0 4.348-4.838 26.457 26.457 0 0 0 1.47-9.922c.137-3.47-.36-6.936-1.47-10.227a9.676 9.676 0 0 0-4.226-5.206 16.597 16.597 0 0 0-7.594-1.47h-7.104v33.01h7.104Zm47.892-46.177h31.05A21.251 21.251 0 0 1 297.4 45.63a21.557 21.557 0 0 1 5.206 15.617 19.536 19.536 0 0 1-2.94 10.595 20.333 20.333 0 0 1-7.961 7.104 7.043 7.043 0 0 1 1.837 1.96 22.905 22.905 0 0 1 1.592 3.245l6.86 15.617H283.62l-6.124-14.33a6.124 6.124 0 0 0-1.776-2.389 5.39 5.39 0 0 0-2.94-.674h-4.899v17.393h-17.27V39.933h-.184Zm26.457 28.784a8.023 8.023 0 0 0 6.124-1.96 7.165 7.165 0 0 0 2.082-5.695c0-5.206-2.388-7.778-7.471-7.778h-10.105v15.617h9.247l.123-.184Zm69.694 31.663a32.03 32.03 0 0 1-22.721-7.288 31.173 31.173 0 0 1-7.655-23.089 31.418 31.418 0 0 1 7.655-23.517 31.479 31.479 0 0 1 22.721-7.349 31.663 31.663 0 0 1 22.782 7.35 31.418 31.418 0 0 1 7.594 23.516 31.173 31.173 0 0 1-7.594 23.089 32.091 32.091 0 0 1-22.904 7.288h.122Zm0-14.76a11.697 11.697 0 0 0 9.615-3.735 19.536 19.536 0 0 0 2.879-12.25c.39-4.286-.62-8.583-2.879-12.248a14.637 14.637 0 0 0-19.536 0 20.7 20.7 0 0 0-2.879 12.249 20.333 20.333 0 0 0 2.879 12.249 12.249 12.249 0 0 0 9.799 3.858l.122-.123Zm47.096-45.687h14.82l22.415 31.54v-31.54h17.393V99.4h-15.065l-22.293-31.356V99.4h-17.393l.123-59.467Zm73.491 0h44.83v13.351H484.19v9.738h24.497v13.473H484.19v9.738h27.804v13.35h-45.136l.306-59.65Z" fill="#1E375A"/>
	<path d="m27.136 15.13-.674.612L50.04 39.015a34.786 34.786 0 0 0-5.205 18.679 32.275 32.275 0 0 0 33.622 33.254 34.908 34.908 0 0 0 18.863-5.205l23.7 23.578a66.693 66.693 0 0 1-53.648 26.151A66.387 66.387 0 0 1 .005 68.901a65.101 65.101 0 0 1 27.13-53.771Zm13.167-9.003A68.408 68.408 0 0 1 69.026.003a66.265 66.265 0 0 1 66.938 66.57 67.367 67.367 0 0 1-6.124 28.785L108.71 74.229a34.97 34.97 0 0 0 5.206-18.373 32.336 32.336 0 0 0-33.684-33.622A34.357 34.357 0 0 0 61.86 27.44L40.303 6.127ZM80.6 75.025a19.475 19.475 0 0 1-20.15-19.904 19.475 19.475 0 0 1 20.15-20.21 19.659 19.659 0 0 1 20.087 20.21A19.353 19.353 0 0 1 80.601 75.21v-.184Z" fill="#00ABE4"/>
</svg>
